svg/modified_date.svg

<svg id="Layer_1" data-name="Layer 1" xmlns="http://www.w3.org/2000/svg" viewBox="0 0 24 24"><title>modified_date</title><path d="M20,3H19V1H17V3H7V1H5V3H4A2,2,0,0,0,2,5V21a2,2,0,0,0,2,2H20a2,2,0,0,0,2-2V5A2,2,0,0,0,20,3ZM7.24,21.14H3.88V17.78l9.9-9.9,3.36,3.35Zm12.5-12.5L18.1,10.28,14.74,6.92l1.64-1.64a.89.89,0,0,1,1.26,0l2.1,2.1A.89.89,0,0,1,19.74,8.64Z"/></svg>

<?xml version="1.0" encoding="utf-8"?>
<!-- Generator: Adobe Illustrator 22.1.0, SVG Export Plug-In . SVG Version: 6.00 Build 0)  -->
<svg version="1.1" id="Layer_1" xmlns="http://www.w3.org/2000/svg" xmlns:xlink="http://www.w3.org/1999/xlink" x="0px" y="0px"
	 viewBox="0 0 24 24" style="enable-background:new 0 0 24 24;" xml:space="preserve">
<style type="text/css">
	.st0{fill:none;}
</style>
<title>modified_date</title>
<rect x="7" y="2.3" class="st0" width="10" height="0.7"/>
<g>
	<path class="st0" d="M17.6,5.3C17.6,5.3,17.6,5.3,17.6,5.3c-0.3-0.3-0.9-0.3-1.3,0l-1.6,1.6l3.4,3.4l1.6-1.6c0,0,0,0,0,0
		c0.3-0.3,0.3-0.9,0-1.3L17.6,5.3z"/>
	<polygon class="st0" points="3.9,17.8 3.9,21.1 7.2,21.1 17.1,11.2 13.8,7.9 	"/>
	<path d="M20,3h-1V1h-2v2H7V1H5v2H4C2.9,3,2,3.9,2,5v16c0,1.1,0.9,2,2,2h16c1.1,0,2-0.9,2-2V5C22,3.9,21.1,3,20,3z M7.2,21.1H3.9
		v-3.4l9.9-9.9l3.4,3.3L7.2,21.1z M19.7,8.6C19.7,8.6,19.7,8.6,19.7,8.6l-1.6,1.6l-3.4-3.4l1.6-1.6c0.3-0.3,0.9-0.3,1.3,0
		c0,0,0,0,0,0l2.1,2.1C20.1,7.7,20.1,8.3,19.7,8.6z"/>
</g>
</svg>
